packages/tokens/icons/accessibility/size24Px.svg

<svg viewBox="0 0 24 24" fill="none" xmlns="http://www.w3.org/2000/svg" width="1em" height="1em"><path d="M5.50001 7L5.53836 6.50147L5.51921 6.5L5.50001 6.5L5.50001 7ZM18.5 7V6.5H18.4808L18.4617 6.50147L18.5 7ZM18.5 8.5V8H18.4505L18.402 8.00971L18.5 8.5ZM13.5 9.5L13.402 9.00971L13 9.0901V9.5H13.5ZM13.5 13H13V13.0866L13.0291 13.1682L13.5 13ZM16 20L16.4801 19.8603L16.4759 19.8459L16.4709 19.8318L16 20ZM14.5 20.5L14.0385 20.6923L14.0451 20.7082L14.0528 20.7236L14.5 20.5ZM12 14.5L12.4615 14.3077C12.3839 14.1214 12.2019 14 12 14C11.7982 14 11.6161 14.1214 11.5385 14.3077L12 14.5ZM9.5 20.5L9.94721 20.7236L9.95492 20.7082L9.96154 20.6923L9.5 20.5ZM8 20.0586L7.52869 19.8917L7.5238 19.9055L7.51972 19.9196L8 20.0586ZM10.5 13L10.9713 13.1669L11 13.0859V13H10.5ZM10.5 9.5H11V9.0901L10.5981 9.00971L10.5 9.5ZM5.50001 8.5L5.59807 8.00971L5.54952 8H5.50001L5.50001 8.5ZM12 7.5L11.9617 7.99853L12 8.00148L12.0384 7.99853L12 7.5ZM13.5981 9.99029L18.5981 8.99029L18.402 8.00971L13.402 9.00971L13.5981 9.99029ZM14 13V9.5H13V13H14ZM13.0291 13.1682L15.5291 20.1682L16.4709 19.8318L13.9709 12.8318L13.0291 13.1682ZM14.9615 20.3077L12.4615 14.3077L11.5385 14.6923L14.0385 20.6923L14.9615 20.3077ZM10.0287 12.8331L7.52869 19.8917L8.47131 20.2256L10.9713 13.1669L10.0287 12.8331ZM10 9.5V13H11V9.5H10ZM5.40195 8.99029L10.402 9.99029L10.5981 9.00971L5.59807 8.00971L5.40195 8.99029ZM9.96154 20.6923L12.4615 14.6923L11.5385 14.3077L9.03846 20.3077L9.96154 20.6923ZM18.4617 6.50147L11.9617 7.00147L12.0384 7.99853L18.5384 7.49853L18.4617 6.50147ZM12.0384 7.00147L5.53836 6.50147L5.46166 7.49853L11.9617 7.99853L12.0384 7.00147ZM18.5 9C18.8867 9 19.2145 8.85215 19.4415 8.60061C19.6607 8.35772 19.7607 8.04667 19.7611 7.75064C19.7615 7.45459 19.6622 7.143 19.4427 6.89956C19.2154 6.64746 18.887 6.5 18.5 6.5V7.5C18.6213 7.5 18.6737 7.54004 18.7 7.56919C18.7341 7.607 18.7612 7.67041 18.7611 7.74936C18.761 7.82833 18.7337 7.89228 18.6991 7.93064C18.6723 7.96035 18.6198 8 18.5 8V9ZM5.50001 6.5C5.11333 6.5 4.7855 6.6479 4.55869 6.89982C4.33973 7.14302 4.24036 7.45422 4.24036 7.74999C4.24036 8.04577 4.33972 8.35697 4.55868 8.60017C4.78549 8.85209 5.11333 9 5.50001 9L5.50001 8C5.38025 8 5.32826 7.9604 5.30186 7.93107C5.2676 7.89302 5.24036 7.82922 5.24036 7.75C5.24036 7.67078 5.2676 7.60697 5.30186 7.56892C5.32826 7.53959 5.38025 7.5 5.50001 7.5L5.50001 6.5ZM15.5199 20.1397C15.5538 20.2561 15.5349 20.3337 15.5087 20.3836C15.4795 20.4394 15.4274 20.4859 15.362 20.5109C15.2978 20.5353 15.2299 20.5358 15.1681 20.5113C15.1105 20.4885 15.0241 20.4301 14.9472 20.2764L14.0528 20.7236C14.4152 21.4484 15.1264 21.6711 15.7185 21.4451C16.29 21.227 16.6952 20.5996 16.4801 19.8603L15.5199 20.1397ZM7.51972 19.9196C7.30496 20.6614 7.71424 21.2821 8.29954 21.4808C8.89367 21.6825 9.59071 21.4366 9.94721 20.7236L9.05279 20.2764C8.97481 20.4323 8.88478 20.4978 8.82023 20.5254C8.75216 20.5544 8.68199 20.5546 8.62105 20.5339C8.55898 20.5128 8.51343 20.4727 8.48855 20.4269C8.46681 20.3868 8.44611 20.3157 8.48028 20.1977L7.51972 19.9196Z" fill="currentColor"/><path d="M12 5.5C12.8284 5.5 13.5 4.82843 13.5 4C13.5 3.17157 12.8284 2.5 12 2.5C11.1716 2.5 10.5 3.17157 10.5 4C10.5 4.82843 11.1716 5.5 12 5.5Z" stroke="currentColor" stroke-linecap="round" stroke-linejoin="round"/></svg>

<svg xmlns="http://www.w3.org/2000/svg" fill="none" viewBox="0 0 24 24" width="1em" height="1em"><path fill="currentColor" d="m5.5 7 .038-.499L5.52 6.5H5.5V7Zm13 0v-.5h-.02l-.018.001L18.5 7Zm0 1.5V8h-.05l-.048.01.098.49Zm-5 1-.098-.49-.402.08v.41h.5Zm0 3.5H13v.087l.03.081.47-.168Zm2.5 7 .48-.14-.004-.014-.005-.014L16 20Zm-1.5.5-.461.192.006.016.008.016.447-.224Zm-2.5-6 .461-.192a.5.5 0 0 0-.922 0L12 14.5Zm-2.5 6 .447.224.008-.016.007-.016L9.5 20.5ZM8 20.059l-.471-.167-.005.014-.004.014.48.139ZM10.5 13l.471.167.029-.081V13h-.5Zm0-3.5h.5v-.41l-.402-.08-.098.49Zm-5-1 .098-.49L5.55 8H5.5v.5Zm6.5-1-.038.499L12 8h.038L12 7.5Zm1.598 2.49 5-1-.196-.98-5 1 .196.98ZM14 13V9.5h-1V13h1Zm-.97.168 2.5 7 .94-.336-2.5-7-.94.336Zm1.931 7.14-2.5-6-.922.384 2.5 6 .922-.384Zm-4.932-7.475-2.5 7.059.942.334 2.5-7.06-.942-.333ZM10 9.5V13h1V9.5h-1Zm-4.598-.51 5 1 .196-.98-5-1-.196.98Zm4.56 11.702 2.5-6-.923-.384-2.5 6 .923.384Zm8.5-14.19-6.5.5.076.997 6.5-.5-.076-.998Zm-6.424.5-6.5-.5-.076.997 6.5.5.076-.998ZM18.5 9c.387 0 .715-.148.942-.4.219-.242.319-.553.32-.85 0-.295-.1-.607-.32-.85a1.24 1.24 0 0 0-.942-.4v1c.121 0 .174.04.2.07a.27.27 0 0 1 .061.18.273.273 0 0 1-.062.18c-.027.03-.08.07-.199.07v1Zm-13-2.5c-.387 0-.715.148-.941.4a1.27 1.27 0 0 0-.319.85c0 .296.1.607.319.85.226.252.554.4.941.4V8c-.12 0-.172-.04-.198-.069a.272.272 0 0 1-.062-.181c0-.08.028-.143.062-.181.026-.03.078-.069.198-.069v-1Zm10.02 13.64c.034.116.015.194-.011.244a.276.276 0 0 1-.147.127.265.265 0 0 1-.194 0c-.057-.023-.144-.08-.22-.235l-.895.448c.362.724 1.073.947 1.665.721.572-.218.977-.845.762-1.585l-.96.28Zm-8-.22c-.215.741.194 1.362.78 1.56.594.203 1.29-.043 1.647-.756l-.894-.448c-.078.156-.168.222-.233.25a.277.277 0 0 1-.199.008.234.234 0 0 1-.132-.107c-.022-.04-.043-.111-.009-.23l-.96-.277Z"/><path stroke="currentColor" stroke-linecap="round" stroke-linejoin="round" d="M12 5.5a1.5 1.5 0 1 0 0-3 1.5 1.5 0 0 0 0 3Z"/></svg>
